X: 239
T:New Tyrolean Waltz(part),aka. JC.244
M:3/4
L:1/8
Q:160
C:Untitled in MS.
S:John Clare,Poet,Helpstone (1793-1864)
R:Waltz
O:England241
A:Northamptonshire
N: This is the first half of the tune only. CGP.
N:No TS or KS in the MS...MR.Bars 2.3.6.7..a slur & 3 added t each 3 qu's
N:making them equal to one crotchet. Bar 5. dotted qu followed by qu in
N:Ms, semi-qu given here.Bar 8, crot in Ms given here as minim.
Z:vmp.P.hil Headford
K:F
C2|F>F A>A c>c|a2f2((3fef)|g2b2((3ede)|f2a2C2|!
F>F A>A c>c|a2g2((3fef)|g2b2((3ede)|f4|]
